contributed-vectors/focusmeter.svg

<svg xmlns="http://www.w3.org/2000/svg" xml:space="preserve" style="fill-rule:evenodd;clip-rule:evenodd;stroke-linecap:round;stroke-linejoin:round;stroke-miterlimit:1.5" viewBox="0 0 192 192"><path d="M164.5 21.5c0-5.519-4.481-10-10-10h-133c-5.519 0-10 4.481-10 10v133c0 5.519 4.481 10 10 10h133c5.519 0 10-4.481 10-10v-133Z" style="fill:#fff" transform="translate(8 8)"/><circle cx="96" cy="96" r="58.096" style="fill:#fff" transform="matrix(.72026 0 0 .72026 26.855 26.855)"/><path d="M137.08 54.92A58.092 58.092 0 0 0 96 37.904c-32.064 0-58.096 26.032-58.096 58.096 0 32.064 26.032 58.096 58.096 58.096a57.974 57.974 0 0 0 0 0c-32.064 0-58.096-26.032-58.096-58.096 0-32.064 26.032-58.096 58.096-58.096a58.092 58.092 0 0 1 41.08 17.016Z" style="fill:none;stroke:#98dc9a;stroke-width:23.04px" transform="matrix(.82478 0 0 .82478 16.822 16.822)"/><path d="M137.08 54.92A58.092 58.092 0 0 0 96 37.904c-32.064 0-58.096 26.032-58.096 58.096 0 32.064 26.032 58.096 58.096 58.096a57.974 57.974 0 0 0 0 0c-32.064 0-58.096-26.032-58.096-58.096 0-32.064 26.032-58.096 58.096-58.096a58.092 58.092 0 0 1 41.08 17.016Z" style="fill:none;stroke:#f8c18c;stroke-width:23.04px" transform="matrix(-.82478 .00008 -.00008 -.82478 175.186 175.171)"/><path d="M125.813 58.487c.393.313.782.633 1.167.959l.293.249.223.194a48.061 48.061 0 0 1 2.175 2.019l-.212-.208a46.98 46.98 0 0 0-1.963-1.811l-.223-.194-.293-.249a48.266 48.266 0 0 0-1.534-1.248l.232.182.135.107Zm-.682-.531a42.26 42.26 0 0 0-1.158-.859l-.18-.13-.111-.078a48.238 48.238 0 0 0-3.585-2.306l.253.148a47.644 47.644 0 0 1 3.332 2.158l.111.078.18.13c.39.28.776.566 1.158.859Zm-42.526-7.972c-.259.076-.518.153-.775.233l-.072.022-.281.089-.259.083c-.177.057-.354.116-.528.174a45.34 45.34 0 0 0-3.315 1.259 50.979 50.979 0 0 0-1.281.564l-.335.154a40.37 40.37 0 0 0-.786.377l-.261.128a46.742 46.742 0 0 0 0 0l.261-.128a43.632 43.632 0 0 1 2.402-1.095 46.009 46.009 0 0 1 2.615-1.016c.232-.083.466-.163.7-.243l.528-.174.259-.083.281-.089.072-.022a46.18 46.18 0 0 1 1.059-.314l-.284.081Zm.853-.24.286-.076-.286.076-.285.079.285-.079Zm35.878 4.406a47.78 47.78 0 0 0-3.639-1.831l-.019-.009-.111-.049a48.552 48.552 0 0 0-1.427-.611l-.344-.139-.272-.108a41.082 41.082 0 0 0-.939-.357l-.154-.057-.084-.031a52.564 52.564 0 0 0-1.913-.649 46.584 46.584 0 0 0-2.376-.684l-.094-.024-.284-.072-.235-.059a50.06 50.06 0 0 0-3.498-.723l-.29-.048a46.637 46.637 0 0 0-3.094-.398 47.743 47.743 0 0 0-1.816-.139l-.075-.004-.296-.016-.238-.011c-.415-.018-.83-.031-1.245-.039l.297.006c.317.008.633.019.948.033l.238.011.296.016.075.004a49.72 49.72 0 0 1 3.199.292 46.347 46.347 0 0 1 3.058.483 48.764 48.764 0 0 1 2.441.533l.235.059.284.072.094.024a53.28 53.28 0 0 1 1.878.53l.279.086.219.068a52.564 52.564 0 0 1 1.913.649l.084.031.154.057a44.391 44.391 0 0 1 1.555.604c.479.196.955.4 1.427.611l.111.049.019.009a48.153 48.153 0 0 1 4.146 2.118l-.254-.145-.253-.142Zm-35.305-4.557a46.36 46.36 0 0 1 2.541-.58l.069-.014a47.375 47.375 0 0 1 3.56-.567l.3-.036.053-.006a50.937 50.937 0 0 1 2.066-.189l.305-.02.305-.019.126-.006c.354-.02.708-.035 1.063-.047l.037-.001.049-.001c.497-.016.995-.024 1.495-.024l-.31.001c-.397.003-.793.01-1.185.023l-.049.001-.037.001c-.355.012-.709.027-1.063.047l-.126.006-.305.019-.305.02a51.151 51.151 0 0 0-2.066.189l-.353.042c-1.101.132-2.19.303-3.267.509l-.293.058-.069.014c-.757.151-1.508.32-2.254.507l-.287.073Z" style="fill:none;stroke:#98dc9a;stroke-width:19px"/><circle cx="122.614" cy="56.27" r="3.784" style="fill:#98dc9a" transform="rotate(180 92.471 93.144)"/><circle cx="122.614" cy="56.27" r="3.784" style="fill:#f8c18c" transform="translate(7.057 5.712)"/><circle cx="96" cy="96" r="58.096" style="fill:#728dbe" transform="translate(64.046 64.046) scale(.33285)"/></svg>

<?xml version="1.0" encoding="UTF-8" standalone="no"?>
<!DOCTYPE svg PUBLIC "-//W3C//DTD SVG 1.1//EN" "http://www.w3.org/Graphics/SVG/1.1/DTD/svg11.dtd">
<svg width="100%" height="100%" viewBox="0 0 192 192" version="1.1" xmlns="http://www.w3.org/2000/svg" xmlns:xlink="http://www.w3.org/1999/xlink" xml:space="preserve" xmlns:serif="http://www.serif.com/" style="fill-rule:evenodd;clip-rule:evenodd;stroke-linecap:round;stroke-linejoin:round;stroke-miterlimit:1.5;">
    <g id="Layer1">
        <g transform="matrix(1,0,0,1,8,8)">
            <path d="M164.5,21.5C164.5,15.981 160.019,11.5 154.5,11.5L21.5,11.5C15.981,11.5 11.5,15.981 11.5,21.5L11.5,154.5C11.5,160.019 15.981,164.5 21.5,164.5L154.5,164.5C160.019,164.5 164.5,160.019 164.5,154.5L164.5,21.5Z" style="fill:white;"/>
        </g>
        <g>
            <g transform="matrix(0.720258,0,0,0.720258,26.8553,26.8553)">
                <circle cx="96" cy="96" r="58.096" style="fill:white;"/>
            </g>
            <g transform="matrix(0.824776,0,0,0.824776,16.8215,16.8215)">
                <path d="M137.08,54.92C126.185,44.024 111.408,37.904 96,37.904C63.936,37.904 37.904,63.936 37.904,96C37.904,128.064 63.936,154.096 96,154.096C98.367,154.096 100.731,153.952 103.08,153.663C100.731,153.952 98.367,154.096 96,154.096C63.936,154.096 37.904,128.064 37.904,96C37.904,63.936 63.936,37.904 96,37.904C111.408,37.904 126.185,44.024 137.08,54.92Z" style="fill:none;stroke:rgb(152,220,154);stroke-width:23.04px;"/>
            </g>
            <g transform="matrix(-0.824776,7.82886e-05,-7.82886e-05,-0.824776,175.186,175.171)">
                <path d="M137.08,54.92C126.185,44.024 111.408,37.904 96,37.904C63.936,37.904 37.904,63.936 37.904,96C37.904,128.064 63.936,154.096 96,154.096C98.367,154.096 100.731,153.952 103.08,153.663C100.731,153.952 98.367,154.096 96,154.096C63.936,154.096 37.904,128.064 37.904,96C37.904,63.936 63.936,37.904 96,37.904C111.408,37.904 126.185,44.024 137.08,54.92Z" style="fill:none;stroke:rgb(248,193,140);stroke-width:23.04px;"/>
            </g>
            <path d="M125.813,58.487C126.206,58.8 126.595,59.12 126.98,59.446C127.078,59.528 127.175,59.612 127.273,59.695L127.496,59.889C127.957,60.291 128.411,60.703 128.857,61.123C129.132,61.382 129.403,61.643 129.671,61.908L129.459,61.7C129.26,61.506 129.06,61.314 128.857,61.123C128.411,60.703 127.957,60.291 127.496,59.889L127.273,59.695C127.175,59.612 127.078,59.528 126.98,59.446C126.596,59.12 126.206,58.8 125.813,58.487C125.69,58.39 125.568,58.294 125.446,58.198L125.678,58.38L125.813,58.487ZM125.131,57.956C124.75,57.663 124.364,57.377 123.973,57.097L123.793,56.967L123.682,56.889C122.835,56.289 121.969,55.718 121.087,55.175C120.759,54.974 120.429,54.777 120.097,54.583L120.35,54.731C120.597,54.877 120.843,55.025 121.087,55.175C121.969,55.717 122.835,56.289 123.682,56.889L123.793,56.967L123.973,57.097C124.363,57.377 124.749,57.663 125.131,57.956ZM82.605,49.984C82.346,50.06 82.087,50.137 81.83,50.217L81.758,50.239C81.664,50.269 81.57,50.298 81.477,50.328L81.218,50.411C81.041,50.468 80.864,50.527 80.69,50.585C80.455,50.665 80.221,50.746 79.99,50.828C79.473,51.011 78.96,51.203 78.454,51.403C78.091,51.546 77.731,51.693 77.375,51.844C77.237,51.902 77.1,51.961 76.963,52.02C76.673,52.146 76.384,52.275 76.094,52.408C75.982,52.459 75.87,52.511 75.759,52.562C75.496,52.685 75.234,52.81 74.973,52.939L74.712,53.067C74.368,53.238 74.026,53.413 73.689,53.591C73.092,53.906 72.503,54.233 71.921,54.572C72.503,54.233 73.092,53.906 73.689,53.591C74.027,53.413 74.369,53.238 74.712,53.067L74.973,52.939C75.233,52.811 75.496,52.685 75.759,52.562C75.871,52.51 75.982,52.459 76.094,52.408C76.382,52.276 76.672,52.147 76.963,52.02C77.1,51.961 77.238,51.902 77.375,51.844C77.733,51.692 78.092,51.546 78.454,51.403C78.962,51.203 79.474,51.011 79.99,50.828C80.222,50.745 80.456,50.665 80.69,50.585C80.866,50.526 81.042,50.468 81.218,50.411L81.477,50.328C81.57,50.298 81.664,50.269 81.758,50.239L81.83,50.217C82.181,50.108 82.534,50.004 82.889,49.903L82.605,49.984ZM83.458,49.744C83.553,49.719 83.649,49.693 83.744,49.668L83.458,49.744C83.363,49.77 83.267,49.797 83.173,49.823L83.458,49.744ZM119.336,54.15C118.149,53.488 116.935,52.877 115.697,52.319L115.678,52.31L115.567,52.261C115.095,52.05 114.619,51.846 114.14,51.65C114.025,51.603 113.91,51.557 113.796,51.511L113.524,51.403C113.212,51.28 112.899,51.161 112.585,51.046L112.431,50.989L112.347,50.958C112.078,50.861 111.807,50.765 111.536,50.672C111.17,50.547 110.803,50.426 110.434,50.309C110.268,50.257 110.102,50.205 109.936,50.155C109.594,50.051 109.25,49.95 108.906,49.854C108.624,49.775 108.341,49.699 108.058,49.625L107.964,49.601L107.68,49.529L107.445,49.47C107.127,49.392 106.808,49.317 106.488,49.245C105.995,49.135 105.5,49.032 105.004,48.937C104.652,48.87 104.3,48.806 103.947,48.747L103.657,48.699C103.089,48.607 102.518,48.525 101.946,48.454C101.486,48.396 101.025,48.345 100.563,48.301C99.959,48.243 99.354,48.197 98.747,48.162L98.672,48.158L98.376,48.142L98.138,48.131C97.723,48.113 97.308,48.1 96.893,48.092L97.19,48.098C97.507,48.106 97.823,48.117 98.138,48.131L98.376,48.142L98.672,48.158L98.747,48.162C99.354,48.197 99.96,48.244 100.563,48.301C101.025,48.345 101.486,48.396 101.946,48.454C102.615,48.537 103.283,48.635 103.947,48.747C104.301,48.806 104.653,48.87 105.004,48.937C105.501,49.032 105.996,49.135 106.488,49.245C106.808,49.317 107.127,49.392 107.445,49.47L107.68,49.529L107.964,49.601L108.058,49.625C108.341,49.699 108.623,49.775 108.906,49.854C109.25,49.951 109.593,50.051 109.936,50.155L110.215,50.241L110.434,50.309C110.803,50.426 111.17,50.547 111.536,50.672C111.807,50.765 112.078,50.861 112.347,50.958L112.431,50.989L112.585,51.046C112.991,51.195 113.394,51.35 113.796,51.511C113.911,51.557 114.026,51.603 114.14,51.65C114.619,51.846 115.095,52.05 115.567,52.261L115.678,52.31L115.697,52.319C116.934,52.877 118.148,53.488 119.336,54.15C119.506,54.245 119.675,54.34 119.843,54.437L119.589,54.292L119.336,54.15ZM84.031,49.593C84.869,49.377 85.716,49.183 86.572,49.013L86.641,48.999C87.813,48.766 89,48.577 90.201,48.432L90.501,48.396L90.554,48.39C90.923,48.348 91.294,48.311 91.665,48.277C91.982,48.249 92.3,48.223 92.62,48.201L92.925,48.181C93.026,48.175 93.128,48.169 93.23,48.162L93.356,48.156C93.71,48.136 94.064,48.121 94.419,48.109L94.456,48.108L94.505,48.107C95.002,48.091 95.5,48.083 96,48.083L95.69,48.084C95.293,48.087 94.897,48.094 94.505,48.107L94.456,48.108L94.419,48.109C94.064,48.121 93.71,48.136 93.356,48.156L93.23,48.162C93.128,48.169 93.026,48.175 92.925,48.181L92.62,48.201C92.301,48.223 91.984,48.249 91.665,48.277C91.293,48.311 90.924,48.348 90.554,48.39C90.437,48.404 90.32,48.417 90.201,48.432C89.1,48.564 88.011,48.735 86.934,48.941L86.641,48.999L86.572,49.013C85.815,49.164 85.064,49.333 84.318,49.52L84.031,49.593Z" style="fill:none;stroke:rgb(152,220,154);stroke-width:19px;"/>
            <g transform="matrix(-1,3.20924e-16,-3.20924e-16,-1,184.943,186.288)">
                <circle cx="122.614" cy="56.27" r="3.784" style="fill:rgb(152,220,154);"/>
            </g>
            <g transform="matrix(1,2.4563e-16,-2.4563e-16,1,7.0568,5.71239)">
                <circle cx="122.614" cy="56.27" r="3.784" style="fill:rgb(248,193,140);"/>
            </g>
            <g transform="matrix(0.332852,0,0,0.332852,64.0462,64.0462)">
                <circle cx="96" cy="96" r="58.096" style="fill:rgb(114,141,190);"/>
            </g>
        </g>
    </g>
</svg>
